X:743
T:Cathkin Braes 
C:Joe Buchanan's Scottish Tome - Page 416.1
I:416 1
R:Schottische
Z:Carl Allison
L:1/8
M:4/4
K:A
"A"(E>A) A2 (c>A) A2 | "A"E>FE>D "F#m"(CA,) A,2 | "Bm"(F>B) B2 (d>B) B2 | "Bm"F>GF>E "E7"D(B, B,2) |
"A"(E>A) A2 (c>A) A2 | "A"E>FE>D "F#m"CA,A,C | "D"D>EF>G "A"A>Bc>d | "E7"e>fe>d "D"(c>A) A2 :|
"A"(c>e) e2 "A"(a>e) e2 | "A"c>de>d "F#m"(c>A) A2 | "Bm"(d>f) f2 (b>f) f2 | "Bm"d>ef>e "E7"(d>B) B2 |
"A"(c>e) e2 (a>e) e2 | "A"c>de>d "A7"c>AA>c | "D"d>ef>g "A"a>ec>d | "E7"e>fe>d "A"(c>A) A2 :|
(A>G) | "D"(F>E) F2 (E>D) | "D"F>AA>B A>Bd>e | "Bm"f2 (e>d) f2 (e>d) | "G"(B>d) "D"(A>F) "A7"E2 "A7"A>G |
"D"F2 (E>D) F2 (E>D) | "D"F>AA>B A>Bd>e | "D"f>ed>A "G"B>d"D"A>d | "A7"F2 (E>D) "D"D4 :|

